static/img/facebook.svg

<svg fill="none" height="34" viewBox="0 0 34 34" width="34" xmlns="http://www.w3.org/2000/svg"><path d="m32.1235 34.0001c1.0362 0 1.8765-.8401 1.8765-1.8765v-30.24709c0-1.036471-.8403-1.87651-1.8765-1.87651h-30.24699c-1.036604 0-1.87651.840039-1.87651 1.87651v30.24709c0 1.0364.839906 1.8765 1.87651 1.8765z" fill="#0036ba"/><path d="m23.4592 34.0002v-13.1666h4.4196l.6617-5.1313h-5.0813v-3.2762c0-1.4856.4127-2.49804 2.5431-2.49804l2.7172-.0012v-4.58933c-.4701-.06256-2.083-.20228-3.9594-.20228-3.9177 0-6.5997 2.39129-6.5997 6.78285v3.7842h-4.4309v5.1313h4.4309v13.1666z" fill="#fff"/></svg>

<svg width="34" height="34" viewBox="0 0 34 34" fill="none" xmlns="http://www.w3.org/2000/svg">
<path d="M32.1235 34.0001C33.1597 34.0001 34 33.16 34 32.1236V1.87651C34 0.840039 33.1597 0 32.1235 0H1.87651C0.839906 0 0 0.840039 0 1.87651V32.1236C0 33.16 0.839906 34.0001 1.87651 34.0001H32.1235Z" fill="#0036BA"/>
<path d="M23.4592 34.0002V20.8336H27.8788L28.5405 15.7023H23.4592V12.4261C23.4592 10.9405 23.8719 9.92806 26.0023 9.92806L28.7195 9.92686V5.33753C28.2494 5.27497 26.6365 5.13525 24.7601 5.13525C20.8424 5.13525 18.1604 7.52654 18.1604 11.9181V15.7023H13.7295V20.8336H18.1604V34.0002H23.4592Z" fill="white"/>
</svg>
